www/assets/icons/plagiarism.svg

<svg xmlns="http://www.w3.org/2000/svg" width="24" height="24" viewBox="0 0 24 24" fill='currentColor'><path d="M14 2H6c-1.1 0-2 .9-2 2v16c0 1.1.89 2 1.99 2H18c1.1 0 2-.9 2-2V8zm1.04 17.45-1.88-1.88c-1.33.71-3.01.53-4.13-.59a3.495 3.495 0 0 1 0-4.95 3.495 3.495 0 0 1 4.95 0 3.48 3.48 0 0 1 .59 4.13l1.88 1.88zM13 9V3.5L18.5 9z"/><path d="M11.5 16a1.5 1.5 0 1 0 0-3 1.5 1.5 0 0 0 0 3"/></svg>

<svg width="24" height="24" viewBox="0 0 24 24" xmlns="http://www.w3.org/2000/svg" fill='currentColor'><path d="M14 2H6C4.9 2 4 2.9 4 4V20C4 21.1 4.89 22 5.99 22H18C19.1 22 20 21.1 20 20V8L14 2ZM15.04 19.45L13.16 17.57C11.83 18.28 10.15 18.1 9.03 16.98C7.66 15.61 7.66 13.4 9.03 12.03C10.4 10.66 12.61 10.66 13.98 12.03C15.1 13.15 15.29 14.83 14.57 16.16L16.45 18.04L15.04 19.45ZM13 9V3.5L18.5 9H13Z"/><path d="M11.5 16C12.3284 16 13 15.3284 13 14.5C13 13.6716 12.3284 13 11.5 13C10.6716 13 10 13.6716 10 14.5C10 15.3284 10.6716 16 11.5 16Z"/></svg>
